X: 36668
T: Shaskeen, The
R: reel
M: 4/4
K: Gmajor
DG~G2 ABcA|~d2ed cAAd|B2BG ABAF|~G2AG FDdB|
dG~G2 ABBA|d2ed cAag|~f2fd edcA|1 AGFA ~G2G2:|2 AGFA ~G2Gc||
dggf g2fg|abag fdde|~f2fa g2fg|abag fddB|
dggf g2fg|abag fdde|~f2fd edcA|AGFA ~G2GB|
dggf g2fg|abag fdde|~f2fa g2fg|abag fddc|
~B2BG ABAF|~G2AG FD (3cde|f2fd edcA|AGFA ~G2Gc||

